X:1
T:Black Velvet Band
M:3/4
L:1/4
K:G
 z2 d| d2 d| B c3/2 d/2| c B2-| B2 A| G A B| G F E| D3-| D d c| B2 B|\
 D E F| G2- A| B2 G| A B c| F G A| G3-| G2 z|
